!!!COM: Palestrina, Giovanni Perluigi da
!!!OPR: Missa Laudate Dominum
!!!OTL: Sanctus
**kern	**kern	**kern	**kern	**kern	**kern	**kern	**kern
*Ibass	*Itenor	*Icalto	*Icant	*Ibass	*Itenor	*Icalto	*Icant
!Bassus	!Tenor	!Altus	!Cantus	!Bassus	!Tenor	!Altus	!Cantus
*clefF4	*clefGv2	*clefG2	*clefG2	*clefF4	*clefGv2	*clefG2	*clefG2
*k[b-]	*k[b-]	*k[b-]	*k[b-]	*k[b-]	*k[b-]	*k[b-]	*k[b-]
*F:ion	*F:ion	*F:ion	*F:ion	*F:ion	*F:ion	*F:ion	*F:ion
*M4/2	*M4/2	*M4/2	*M4/2	*M4/2	*M4/2	*M4/2	*M4/2
=1	=1	=1	=1	=1	=1	=1	=1
0r	0r	0r	0r	0r	0r	1r	1f
.	.	.	.	.	.	1c	1cc
=2	=2	=2	=2	=2	=2	=2	=2
0r	0r	0r	0r	0r	0r	1f	2.cc
.	.	.	.	.	.	.	4b-
.	.	.	.	.	.	2.f	1a
.	.	.	.	.	.	4e	.
=3	=3	=3	=3	=3	=3	=3	=3
0r	0r	0r	0r	0r	0r	2d	1.dd
.	.	.	.	.	.	4B-	.
.	.	.	.	.	.	4c	.
.	.	.	.	.	.	4d	.
.	.	.	.	.	.	4e	.
.	.	.	.	.	.	[2f	4cc
.	.	.	.	.	.	.	4b-
=4	=4	=4	=4	=4	=4	=4	=4
0r	0r	0r	1r	0r	0r	2f]	2a
.	.	.	.	.	.	2e	2g
.	.	.	1f	.	.	2d	2.a
.	.	.	.	.	.	[2f	.
.	.	.	.	.	.	.	4f
=5	=5	=5	=5	=5	=5	=5	=5
0r	0r	1c	1cc	0r	0r	2f]	1g
.	.	.	.	.	.	2e	.
.	.	1f	2.cc	.	.	2f	2.a
.	.	.	.	.	.	[2F	.
.	.	.	4b-	.	.	.	4b-
=6	=6	=6	=6	=6	=6	=6	=6
0r	0r	2.f	1a	0r	0r	4F]	4cc
.	.	.	.	.	.	4G	4b-
.	.	.	.	.	.	2A	4a
.	.	4e	.	.	.	.	4g
.	.	2d	[1dd	.	.	[1B-	2f
.	.	4B-	.	.	.	.	4d
.	.	4c	.	.	.	.	4e
=7	=7	=7	=7	=7	=7	=7	=7
0r	0r	4d	2dd]	0r	0r	2B-]	4f
.	.	4e	.	.	.	.	4g
.	.	1f	4cc	.	.	4A	4a
.	.	.	4b-	.	.	4G	4b-
.	.	.	2a	.	.	2F	[1cc
.	.	2e	2g	.	.	2c	.
=8	=8	=8	=8	=8	=8	=8	=8
0r	0r	4f	2.a	1r	1F	1A	0cc]
.	.	4c	.	.	.	.	.
.	.	1f	.	.	.	.	.
.	.	.	4f	.	.	.	.
.	.	.	1g	1C	1c	1G	.
.	.	2e	.	.	.	.	.
=9	=9	=9	=9	=9	=9	=9	=9
0r	0r	1f	2f	1F	2.c	2r	2.a
.	.	.	2.cc	.	.	4F	.
.	.	.	.	.	4B-	4G	4b-
.	.	2r	.	2.F	1A	4A	1cc
.	.	.	4b-	.	.	4B-	.
.	.	2F	[2a	.	.	2c	.
.	.	.	.	4E	.	.	.
=10	=10	=10	=10	=10	=10	=10	=10
0r	0r	2A	2a]	2D	1.d	1F	1r
.	.	2B-	4d	4BB-	.	.	.
.	.	.	4e	4C	.	.	.
.	.	2.A	4f	4D	.	2r	1f
.	.	.	4g	4E	.	.	.
.	.	.	[2a	[2F	4c	[2c	.
.	.	4B-	.	.	4B-	.	.
=11	=11	=11	=11	=11	=11	=11	=11
0r	1r	1c	4a]	2F]	2.A	4c]	1cc
.	.	.	4b-	.	.	4d	.
.	.	.	2cc	2E	.	2e	.
.	.	.	.	.	4G	.	.
.	1F	1r	2f	2D	2.A	2f	2dd
.	.	.	2a	[2F	.	[2c	[2cc
.	.	.	.	.	4F	.	.
=12	=12	=12	=12	=12	=12	=12	=12
1C	1c	2r	2g	2F]	1G	4c]	4cc]
.	.	.	.	.	.	4d	4b-
.	.	2c	1cc	2E	.	2e	2g
1F	2.c	2.A	.	1F	[1F	[1c	[1a
.	.	.	[2a	.	.	.	.
.	4B-	4B-	.	.	.	.	.
=13	=13	=13	=13	=13	=13	=13	=13
2.F	1A	2c	4a]	1FF	1F]	1c]	1a]
.	.	.	4b-	.	.	.	.
.	.	2F	2cc	.	.	.	.
4E	.	.	.	.	.	.	.
2D	[1d	2A	2f	2r	2r	2r	2r
4BB-	.	[2B-	4d	[2BB-	2F	2d	[2f
4C	.	.	4e	.	.	.	.
=14	=14	=14	=14	=14	=14	=14	=14
4D	2d]	2B-]	4f	2BB-]	2.F	2B-	2f]
4E	.	.	4g	.	.	.	.
1F	4c	2A	2a	1FF	.	1c	2f
.	4B-	.	.	.	4G	.	.
.	2A	1c	2f	.	2A	.	[1cc
2E	2G	.	[2g	2C	[2c	2c	.
=15	=15	=15	=15	=15	=15	=15	=15
1F	2A	0c	4g]	1FF	4c]	2.A	0cc]
.	.	.	4f	.	4B-	.	.
.	2F	.	1f	.	2A	.	.
.	.	.	.	.	.	4B-	.
1C	1G	.	.	1C	2G	1c	.
.	.	.	2e	.	2c	.	.
=16	=16	=16	=16	=16	=16	=16	=16
2r	2F	2r	2f	0FF	0A	0c	0cc
2.F	2.c	2.f	2.a	.	.	.	.
4F	4c	4f	4a	.	.	.	.
2F	2c	2f	2a	.	.	.	.
=17	=17	=17	=17	=17	=17	=17	=17
1BB-	1d	1f	1b-	1r	2r	1r	1r
.	.	.	.	.	2.F	.	.
[1FF	[1c	[1f	[1a	2r	.	2r	2r
.	.	.	.	.	4F	.	.
.	.	.	.	[2F	2F	[2f	[2cc
=18	=18	=18	=18	=18	=18	=18	=18
1FF]	1c]	1f]	1a]	4F]	2.A	4f]	4cc]
.	.	.	.	4F	.	4f	4cc
.	.	.	.	2F	.	2f	2cc
.	.	.	.	.	8B-	.	.
.	.	.	.	.	8c	.	.
1r	2r	1r	1r	1BB-	1d	1f	1b-
.	[2F	.	.	.	.	.	.
=19	=19	=19	=19	=19	=19	=19	=19
2r	4F]	2r	2r	0FF	0c	0f	0a
.	4F	.	.	.	.	.	.
2.F	2F	2.f	2.cc	.	.	.	.
.	2.A	.	.	.	.	.	.
4F	.	4f	4cc	.	.	.	.
2F	.	2f	2cc	.	.	.	.
.	8B-	.	.	.	.	.	.
.	8c	.	.	.	.	.	.
=20	=20	=20	=20	=20	=20	=20	=20
1BB-	1d	1f	1b-	0r	0r	0r	0r
[1FF	1c	[1f	2a	.	.	.	.
.	.	.	4f	.	.	.	.
.	.	.	4g	.	.	.	.
=21	=21	=21	=21	=21	=21	=21	=21
1FF]	4F	2f]	4a	0r	0r	0r	0r
.	4G	.	4b-	.	.	.	.
.	4A	4c	4cc	.	.	.	.
.	4B-	4d	4b-	.	.	.	.
1r	2c	4e	4g	.	.	.	.
.	.	4f	4a	.	.	.	.
.	2G	[2g	4b-	.	.	.	.
.	.	.	4cc	.	.	.	.
=22	=22	=22	=22	=22	=22	=22	=22
0r	2B-	4g]	2dd	0r	0r	0r	0r
.	.	4f	.	.	.	.	.
.	2c	2e	1cc	.	.	.	.
.	1G	1d	.	.	.	.	.
.	.	.	2b-	.	.	.	.
=23	=23	=23	=23	=23	=23	=23	=23
2.FF	4F	2f	2.a	0r	0r	0r	0r
.	4G	.	.	.	.	.	.
.	4A	2.c	.	.	.	.	.
4GG	4B-	.	8g	.	.	.	.
.	.	.	8f	.	.	.	.
4AA	2c	.	2e	.	.	.	.
4BB-	.	4d	.	.	.	.	.
[2C	2G	4e	4c	.	.	.	.
.	.	4f	4d	.	.	.	.
=24	=24	=24	=24	=24	=24	=24	=24
2C]	4C	4g	4e	0r	0r	0r	0r
.	4D	4f	4f	.	.	.	.
2C	4E	2e	2.g	.	.	.	.
.	4F	.	.	.	.	.	.
2BB	[1G	2d	.	.	.	.	.
.	.	.	4f	.	.	.	.
2C	.	[2c	2e	.	.	.	.
=25	=25	=25	=25	=25	=25	=25	=25
1GG	1G_	2c]	1d	1r	1r	1r	1r
.	.	2B	.	.	.	.	.
[1C	1G_	[1c	[1e	2r	2r	2r	2r
.	.	.	.	[2C	[2c	[2e	[2g
=26	=26	=26	=26	=26	=26	=26	=26
1C]	1G]	1c]	1e]	4C]	4c]	4e]	4g]
.	.	.	.	4C	4c	4e	4g
.	.	.	.	2C	2c	2e	2g
2r	2r	2r	2r	1FF	2.c	1f	1a
[2F	[2A	[2c	[2cc	.	.	.	.
.	.	.	.	.	4B-	.	.
=27	=27	=27	=27	=27	=27	=27	=27
4F]	4A]	4c]	4cc]	1FF	1A	1c	0f
4F	4A	4c	4cc	.	.	.	.
2F	2A	2f	2cc	.	.	.	.
1BB-	1d	1f	1b-	2r	[1B-	2r	.
.	.	.	.	[2BB-	.	4B-	.
.	.	.	.	.	.	4c	.
=28	=28	=28	=28	=28	=28	=28	=28
1BB-	1d	1f	1b-	4BB-]	1B-]	4d	2.f
.	.	.	.	4C	.	4e	.
.	.	.	.	4D	.	2f	.
.	.	.	.	4E	.	.	4g
2FF	2c	2f	2a	[1F	2r	4F	4a
.	.	.	.	.	.	4G	4b-
2FF	2c	2f	2a	.	4F	4A	[2cc
.	.	.	.	.	4G	4B-	.
=29	=29	=29	=29	=29	=29	=29	=29
1FF	1c	1f	1a	2F]	4A	2c	4cc]
.	.	.	.	.	4B-	.	4b-
.	.	.	.	2F	2.c	2F	2a
1r	1r	1r	1r	2E	.	2G	2g
.	.	.	.	.	4B-	.	.
.	.	.	.	2F	2A	[2c	2f
=30	=30	=30	=30	=30	=30	=30	=30
0r	0r	0r	0r	0C	2G	2c]	2e
.	.	.	.	.	2F	2c	1f
.	.	.	.	.	1G	1c	.
.	.	.	.	.	.	.	2e
=31	=31	=31	=31	=31	=31	=31	=31
2r	2r	2r	2r	0BB-	0B-	0d	0f
2BB-	2B-	2f	2dd	.	.	.	.
2BB-	2B-	2f	2dd	.	.	.	.
2BB-	2B-	2f	2dd	.	.	.	.
=32	=32	=32	=32	=32	=32	=32	=32
1BB-	1B-	1f	1dd	0r	0r	0r	0r
1F	1A	1f	2cc	.	.	.	.
.	.	.	[2dd	.	.	.	.
=33	=33	=33	=33	=33	=33	=33	=33
2.G	1.B-	1d	4dd]	0r	0r	0r	0r
.	.	.	4cc	.	.	.	.
.	.	.	4b-	.	.	.	.
4F	.	.	4a	.	.	.	.
4E-	.	1e-	[1g	.	.	.	.
4D	.	.	.	.	.	.	.
2C	[2c	.	.	.	.	.	.
=34	=34	=34	=34	=34	=34	=34	=34
1G	4c]	2.d	2g]	0r	0r	0r	0r
.	4B-	.	.	.	.	.	.
.	1B-	.	2d	.	.	.	.
.	.	8c	.	.	.	.	.
.	.	8B-	.	.	.	.	.
1F	.	1c	1f	.	.	.	.
.	2A	.	.	.	.	.	.
=35	=35	=35	=35	=35	=35	=35	=35
0BB-	0B-	0d	0f	2r	2r	2r	2r
.	.	.	.	2.BB-	2.B-	2.f	2.dd
.	.	.	.	4BB-	4B-	4f	4dd
.	.	.	.	2BB-	2B-	2f	2dd
=36	=36	=36	=36	=36	=36	=36	=36
1r	1r	1r	1r	1BB-	1B-	1f	1dd
2r	2r	2r	2r	[1F	2A	1f	2.cc
[2FF	[2c	[2f	[2a	.	4F	.	.
.	.	.	.	.	4G	.	4b-
=37	=37	=37	=37	=37	=37	=37	=37
4FF]	4c]	4f]	4a]	0F]	4A	2.c	2.a
4FF	4c	4f	4a	.	4G	.	.
2FF	2c	2f	2a	.	4A	.	.
.	.	.	.	.	4B-	4B-	4g
1FF	1c	1f	1a	.	1c	1A	1f
=38	=38	=38	=38	=38	=38	=38	=38
1C	1c	1e	1g	2r	2r	2r	2r
.	.	.	.	2C	2c	2e	2g
1r	1r	1r	1r	2C	2c	2e	2g
.	.	.	.	2C	2c	2e	2g
=39	=39	=39	=39	=39	=39	=39	=39
0r	0r	0r	0r	1C	1c	1e	4a
.	.	.	.	.	.	.	4g
.	.	.	.	.	.	.	1cc
.	.	.	.	1G	1d	2.g	.
.	.	.	.	.	.	.	2b-
.	.	.	.	.	.	4f	.
=40	=40	=40	=40	=40	=40	=40	=40
0r	0r	0r	0r	2.A	2c	4e	2.cc
.	.	.	.	.	.	4d	.
.	.	.	.	.	2A	2e	.
.	.	.	.	4G	.	.	4b-
.	.	.	.	4F	2c	1f	4a
.	.	.	.	4E	.	.	4g
.	.	.	.	2D	[2d	.	4f
.	.	.	.	.	.	.	4e
=41	=41	=41	=41	=41	=41	=41	=41
1r	1r	1r	1r	1G	4d]	1B-	2d
.	.	.	.	.	4c	.	.
.	.	.	.	.	1B-	.	2e
1FF	2r	2r	2r	2.F	.	[1c	1f
.	2c	2f	2a	.	4A	.	.
.	.	.	.	4E	4G	.	.
=42	=42	=42	=42	=42	=42	=42	=42
2FF	1c	2f	2a	4F	1A	2c]	1.cc
.	.	.	.	4G	.	.	.
2FF	.	2f	2a	2.A	.	2F	.
1FF	[1c	2f	1a	.	1F	2.A	.
.	.	.	.	4G	.	.	.
.	.	[2c	.	[2F	.	.	2cc
.	.	.	.	.	.	4B-	.
=43	=43	=43	=43	=43	=43	=43	=43
1C	1c]	4c]	2g	2F]	2G	1c	1cc
.	.	4d	.	.	.	.	.
.	.	2e	2.a	2E	2C	.	.
2.D	2F	1d	.	1F	1r	1r	1a
.	.	.	4g	.	.	.	.
.	2A	.	4f	.	.	.	.
4C	.	.	4e	.	.	.	.
=44	=44	=44	=44	=44	=44	=44	=44
4BB-	1B-	1.d	2d	0r	0r	0r	0r
4AA	.	.	.	.	.	.	.
2GG	.	.	2.g	.	.	.	.
1D	2A	.	.	.	.	.	.
.	.	.	4f	.	.	.	.
.	4G	2B-	[2f	.	.	.	.
.	4F	.	.	.	.	.	.
=45	=45	=45	=45	=45	=45	=45	=45
0C	0G	0c	2f]	2r	2r	2r	2r
.	.	.	4e	2C	2G	2c	2g
.	.	.	4d	.	.	.	.
.	.	.	1e	2C	2G	2c	2g
.	.	.	.	2C	2c	2c	2g
=46	=46	=46	=46	=46	=46	=46	=46
2r	[0F	2r	2f	1F	2.c	2.A	0a
2FF	.	2A	2cc	.	.	.	.
.	.	.	.	.	4B-	4B-	.
2FF	.	2A	2cc	1F	4A	2c	.
.	.	.	.	.	4G	.	.
2FF	.	2A	2cc	.	[2F	2f	.
=47	=47	=47	=47	=47	=47	=47	=47
1BB-	1F_	2B-	1dd	2D	2F]	[0f	0b-
.	.	1B-	.	2.BB-	2D	.	.
1BB-	1F_	.	2.d	.	2.B-	.	.
.	.	.	.	4C	.	.	.
.	.	2F	.	[2D	.	.	.
.	.	.	4e	.	4c	.	.
=48	=48	=48	=48	=48	=48	=48	=48
0BB-	0F]	4B-	2f	2D]	1d	0f]	0dd
.	.	4c	.	.	.	.	.
.	.	4d	2d	2BB-	.	.	.
.	.	4c	.	.	.	.	.
.	.	2B-	2.f	2.D	1B-	.	.
.	.	[2f	.	.	.	.	.
.	.	.	4g	4E	.	.	.
=49	=49	=49	=49	=49	=49	=49	=49
[0FF	[0F	2f]	[0a	[0F	[0A	[0f	[0cc
.	.	4e	.	.	.	.	.
.	.	4d	.	.	.	.	.
.	.	1c	.	.	.	.	.
=50	=50	=50	=50	=50	=50	=50	=50
0FF]	0F]	0c	0a]	0F]	0A]	0f]	0cc]
==	==	==	==	==	==	==	==
*-	*-	*-	*-	*-	*-	*-	*-
!!!CDT: 1525/^1526/-1594/2/2
!!!OCY: Italia
!!!AGN: Mass (Parody)
!!!AST: renaissance, vocal
!!!ASW: Motet 1572 (Palestrina)
!!!PWK: Masses, Book 8vce
!!!RNB: Cadence finals: C
!!!YOR: Le Opere Complete, v. 30, p. 1
!!!YOO: Rome, Italy: Fratelli Scalera
!!!END: 1992//
!!!EED: John Miller
!!!YEC: Copyright 2000, John Miller
!!!YEN: United States of America
!!!YEM: Rights to all derivative electronic formats reserved.
!!!YEM: Refer to licensing agreement for further details.
!!!YEM: This file must be accompanied by the licensing agreement.
!!!YEM: A copy of the licensing agreement may be found at http://www.music-cog.ohio-state.edu/HumdrumDatabases/Palestrina/license.txt
!!!EMD: converted to Humdrum by Bret Aarden
